X: 42
T: Napoleon
T: Krambambuli
B:[[Notböcker/Melodier til gamle danske Almuedanse for Violin solo]]
O:Danmark
Z:Søren Bak Vestergaard
M: 2/4
L: 1/8
K: C
G|c2 BA|G3 G|(AG) (AB)|c2 GG|AGFE|G2 E2|D2 (.[GB,]>.[GB,])|[GB,]2 z:|\
|:G|EGGG|AGGG|EGGG|AGGG|c2 d2|e>d cc|d2 B2|c2 z:|

